src/assets/outline/Document.svg

<?xml version="1.0" encoding="UTF-8"?>
<svg width="24" height="24" viewBox="0 0 24 24" xmlns="http://www.w3.org/2000/svg">
 <path d="m15 22.75h-6c-5.43 0-7.75-2.32-7.75-7.75v-6c0-5.43 2.32-7.75 7.75-7.75h6c5.43 0 7.75 2.32 7.75 7.75v6c0 5.43-2.32 7.75-7.75 7.75zm-6-20c-4.61 0-6.25 1.64-6.25 6.25v6c0 4.61 1.64 6.25 6.25 6.25h6c4.61 0 6.25-1.64 6.25-6.25v-6c0-4.61-1.64-6.25-6.25-6.25h-6z"/>
 <path d="m15.75 9.75h-7.5c-0.41 0-0.75-0.34-0.75-0.75s0.34-0.75 0.75-0.75h7.5c0.41 0 0.75 0.34 0.75 0.75s-0.34 0.75-0.75 0.75z"/>
 <path d="m15.75 15.75h-7.5c-0.41 0-0.75-0.34-0.75-0.75s0.34-0.75 0.75-0.75h7.5c0.41 0 0.75 0.34 0.75 0.75s-0.34 0.75-0.75 0.75z"/>
</svg>

<svg width="24" height="24" viewBox="0 0 24 24"  xmlns="http://www.w3.org/2000/svg">
<path d="M15 22.75H9C3.57 22.75 1.25 20.43 1.25 15V9C1.25 3.57 3.57 1.25 9 1.25H15C20.43 1.25 22.75 3.57 22.75 9V15C22.75 20.43 20.43 22.75 15 22.75ZM9 2.75C4.39 2.75 2.75 4.39 2.75 9V15C2.75 19.61 4.39 21.25 9 21.25H15C19.61 21.25 21.25 19.61 21.25 15V9C21.25 4.39 19.61 2.75 15 2.75H9Z" />
<path d="M15.75 9.75H8.25C7.84 9.75 7.5 9.41 7.5 9C7.5 8.59 7.84 8.25 8.25 8.25H15.75C16.16 8.25 16.5 8.59 16.5 9C16.5 9.41 16.16 9.75 15.75 9.75Z" />
<path d="M15.75 15.75H8.25C7.84 15.75 7.5 15.41 7.5 15C7.5 14.59 7.84 14.25 8.25 14.25H15.75C16.16 14.25 16.5 14.59 16.5 15C16.5 15.41 16.16 15.75 15.75 15.75Z" />
</svg>
